assets/icons/informations/trolley.svg

<svg viewBox="0 0 24 24" xmlns="http://www.w3.org/2000/svg">
<path d="M2.52632 18.3158V1.89474H0V0H4.42105V16.4211H24V18.3158H2.52632ZM4.38947 24C3.86316 24 3.42105 23.8158 3.06316 23.4474C2.70526 23.0789 2.52632 22.6316 2.52632 22.1053C2.52632 21.5789 2.70526 21.1316 3.06316 20.7632C3.42105 20.3947 3.86316 20.2105 4.38947 20.2105C4.91579 20.2105 5.36842 20.3947 5.74737 20.7632C6.12632 21.1316 6.31579 21.5789 6.31579 22.1053C6.31579 22.6316 6.12632 23.0789 5.74737 23.4474C5.36842 23.8158 4.91579 24 4.38947 24ZM6.63158 14.2105V7.26316H13.5789V14.2105H6.63158ZM15.4737 14.2105V7.26316H22.4211V14.2105H15.4737ZM22.1053 24C21.5789 24 21.1316 23.8158 20.7632 23.4474C20.3947 23.0789 20.2105 22.6316 20.2105 22.1053C20.2105 21.5789 20.3947 21.1316 20.7632 20.7632C21.1316 20.3947 21.5789 20.2105 22.1053 20.2105C22.6316 20.2105 23.0789 20.3947 23.4474 20.7632C23.8158 21.1316 24 21.5789 24 22.1053C24 22.6316 23.8158 23.0789 23.4474 23.4474C23.0789 23.8158 22.6316 24 22.1053 24Z" fill="inherit"/>
</svg>

<svg viewBox="0 0 24 24" xmlns="http://www.w3.org/2000/svg"><path d="M2.5 18.3V2H0V0h4.4v16.4H24v2H2.5ZM4.4 24c-.5 0-1-.2-1.3-.6-.4-.3-.6-.8-.6-1.3a1.9 1.9 0 0 1 1.9-1.9c.5 0 1 .2 1.3.6.4.3.6.8.6 1.3s-.2 1-.6 1.3c-.3.4-.8.6-1.3.6Zm2.2-9.8v-7h7v7h-7Zm8.9 0v-7h7v7h-7ZM22 24c-.5 0-1-.2-1.3-.6-.4-.3-.6-.8-.6-1.3s.2-1 .6-1.3c.3-.4.8-.6 1.3-.6s1 .2 1.3.6c.4.3.6.8.6 1.3s-.2 1-.6 1.3c-.3.4-.8.6-1.3.6Z" fill="inherit"/></svg>
